Adwaita-green/scalable/places/user-desktop.svg

<?xml version="1.0" encoding="UTF-8"?>
<svg height="128px" viewBox="0 0 128 128" width="128px" xmlns="http://www.w3.org/2000/svg" xmlns:xlink="http://www.w3.org/1999/xlink">
    <linearGradient id="a" gradientTransform="matrix(0.45451 0 0 0.455522 -1210.292114 616.172607)" gradientUnits="userSpaceOnUse" x1="2689.251953" x2="2918.069824" y1="-1106.802979" y2="-1106.802979">
        <stop offset="0" stop-color="#62a0ea"/>
        <stop offset="0.0576991" stop-color="#afd4ff"/>
        <stop offset="0.122204" stop-color="#62a0ea"/>
        <stop offset="0.873306" stop-color="#62a0ea"/>
        <stop offset="0.955997" stop-color="#c0d5ea"/>
        <stop offset="1" stop-color="#62a0ea"/>
    </linearGradient>
    <path d="m 21.976562 12 c -5.527343 0 -9.976562 4.460938 -9.976562 10 v 86.03125 c 0 5.542969 4.449219 10 9.976562 10 h 84.042969 c 5.53125 0 9.980469 -4.457031 9.980469 -10 v -72.085938 c 0 -6.628906 -5.359375 -12 -11.972656 -12 h -46.027344 c -2.453125 0 -4.695312 -1.386718 -5.796875 -3.582031 l -1.503906 -2.992187 c -1.65625 -3.292969 -5.019531 -5.371094 -8.699219 -5.371094 z m 0 0" fill="#438de6"/>
    <path d="m 65.976562 36 c -2.746093 0 -5.226562 1.101562 -7.027343 2.890625 c -2.273438 2.253906 -5.382813 5.109375 -8.632813 5.109375 h -28.339844 c -5.527343 0 -9.976562 4.460938 -9.976562 10 v 54.03125 c 0 5.542969 4.449219 10 9.976562 10 h 84.042969 c 5.53125 0 9.980469 -4.457031 9.980469 -10 v -62.03125 c 0 -5.539062 -4.449219 -10 -9.980469 -10 z m 0 0" fill="url(#a)"/>
    <path d="m 65.976562 32 c -2.746093 0 -5.226562 1.101562 -7.027343 2.890625 c -2.273438 2.253906 -5.382813 5.109375 -8.632813 5.109375 h -28.339844 c -5.527343 0 -9.976562 4.460938 -9.976562 10 v 55.976562 c 0 5.539063 4.449219 10 9.976562 10 h 84.042969 c 5.53125 0 9.980469 -4.460937 9.980469 -10 v -63.976562 c 0 -5.539062 -4.449219 -10 -9.980469 -10 z m 0 0" fill="#a4caee"/>
    <g fill="#428be2">
        <path d="m 50 70 v 2 h 16 v -2 z m 0 0"/>
        <path d="m 54 64 c -3.289062 0 -6 2.710938 -6 6 v 16 c 0 3.289062 2.710938 6 6 6 h 20 c 3.289062 0 6 -2.710938 6 -6 v -12 c 0 -3.289062 -2.710938 -6 -6 -6 h -7.171875 l -3.414063 -3.414062 c -0.375 -0.375 -0.882812 -0.585938 -1.414062 -0.585938 z m 0 4 h 7.171875 l 3.414063 3.414062 c 0.375 0.375 0.882812 0.585938 1.414062 0.585938 h 8 c 1.125 0 2 0.875 2 2 v 12 c 0 1.132812 -0.875 2 -2 2 h -20 c -1.125 0 -2 -0.867188 -2 -2 v -16 c 0 -1.125 0.875 -2 2 -2 z m 0 0"/>
    </g>
</svg>

<svg width="128" height="128" viewBox="0 0 128 128" fill="none" xmlns="http://www.w3.org/2000/svg">
<path d="M21.9766 12C16.4492 12 12 16.4609 12 22V108.031C12 113.574 16.4492 118.031 21.9766 118.031H106.02C111.551 118.031 116 113.574 116 108.031V35.9453C116 29.3164 110.641 23.9453 104.027 23.9453H58C55.5469 23.9453 53.3047 22.5586 52.2031 20.3633L50.6992 17.3711C49.043 14.0781 45.6797 12 42 12H21.9766Z" fill="#33D17A"/>
<path d="M65.9766 36C63.2305 36 60.75 37.1016 58.9492 38.8906C56.6758 41.1445 53.5664 44 50.3164 44H21.9766C16.4492 44 12 48.4609 12 54V108.031C12 113.574 16.4492 118.031 21.9766 118.031H106.02C111.551 118.031 116 113.574 116 108.031V46C116 40.4609 111.551 36 106.02 36H65.9766Z" fill="url(#paint0_linear_4_76)"/>
<path d="M65.9766 32C63.2305 32 60.75 33.1016 58.9492 34.8906C56.6758 37.1445 53.5664 40 50.3164 40H21.9766C16.4492 40 12 44.4609 12 50V105.977C12 111.516 16.4492 115.977 21.9766 115.977H106.02C111.551 115.977 116 111.516 116 105.977V42C116 36.4609 111.551 32 106.02 32H65.9766Z" fill="#8FF0A4"/>
<path d="M50 70V72H66V70H50Z" fill="#33D17A"/>
<path d="M54 64C50.7109 64 48 66.7109 48 70V86C48 89.2891 50.7109 92 54 92H74C77.2891 92 80 89.2891 80 86V74C80 70.7109 77.2891 68 74 68H66.8281L63.4141 64.5859C63.0391 64.2109 62.5312 64 62 64H54ZM54 68H61.1719L64.5859 71.4141C64.9609 71.7891 65.4688 72 66 72H74C75.125 72 76 72.875 76 74V86C76 87.1328 75.125 88 74 88H54C52.875 88 52 87.1328 52 86V70C52 68.875 52.875 68 54 68Z" fill="#33D17A"/>
<defs>
<linearGradient id="paint0_linear_4_76" x1="11.9998" y1="112" x2="116" y2="112" gradientUnits="userSpaceOnUse">
<stop stop-color="#57E389"/>
<stop offset="0.0576991" stop-color="#C4F9CF"/>
<stop offset="0.122204" stop-color="#57E389"/>
<stop offset="0.873306" stop-color="#57E389"/>
<stop offset="0.955997" stop-color="#C4F9CF"/>
<stop offset="1" stop-color="#57E389"/>
</linearGradient>
</defs>
</svg>
